X: 061
M: C|
L: 1/8
K: D
a |\
ddad fdad | fdad e=cce | ddad fdad | e=cga fdd :|
(def).d AdFd | EcGc EccA | (def).d AdFd | EFGE FDDA |
(def).d AdFd | E=cGc EccE | Ddfd cegb | agfe fdd |]


